X:1
T:Title
%%score [ ( 1 2 ) ( 3 4 ) ] { ( 5 6 ) | 7 }
L:1/8
Q:1/4=120
M:4/4
K:Ab
V:1 treble nm="Midi_74"
V:2 treble 
V:3 bass nm="Midi_74"
V:4 bass 
V:5 treble nm="Org."
V:6 treble 
V:7 bass 
V:1
 (F6 G2) | A4 G4 | F8 || f8 | e4 A4 | F4 d4 |{c} B8 || d8 | c4 A4 | f8 || (e6 d2) |{d} c4 (B2 A2) | %12
"^John Camidge\n(1790-1859)" A4 G4 | F8 |] %14
V:2
 C8 | F4 =E4 | F8 || (F6 G2) | A4 E4 | D4 D4 | E8 || E8 | E4 E4 | F8 || (G6 E2) | (E2 F2) (G2 F2) | %12
 F4 =E4 | F8 |] %14
V:3
 (A,6 B,2) | C4 B,4 | A,8 || (A,6 B,2) | C4 A,4 | A,4 B,4 |{A,} G,8 || B,8 | A,4 A,4 | A,8 || B,8 | %11
 C4 D4 | C4 B,4 | A,8 |] %14
V:4
 F,8 | F,4 C,4 | D,8 || D,8 | C,4 C,4 | D,4 B,,4 | E,8 || G,,8 | A,,4 C,4 | D,8 || G,,8 | %11
 A,,4 B,,4 | C,4 C,4 | F,,8 |] %14
V:5
 [A,F]6 [B,G]2 | A4 G4 | F8 || f8 | e4 A4 | F4 d4 |{[Ac]} B8 || [Bd]8 | c4 A4 | [df]8 || e6 d2 | %11
 d2 c2 [GB]2 [FA]2 | A4 G4 | F8 |] %14
V:6
 C8 | [CF]4 [B,=E]4 | [A,F]8 || [FA]6 [GB]2 | [Ac]4 [A,E]4 | [A,D]4 [FB]4 | [EG]8 || E8 | %8
 [EA]4 E4 | [FA]8 || [EB]8 | [EA]4 D4 | F4 [B,C=E]4 | [A,CF]8 |] %14
V:7
 [F,,F,]8 |"^8 vi" F,4 C,4 | D,8 || D,8 | C,4 C,4 | D,4 B,,4 | E,8 || [G,,G,]8 | [A,,A,]4 [C,C]4 | %9
 [D,D]8 || [G,,G,]8 | [A,,A,]4 [B,,B,]4 | [C,C]4 [C,,C,]4 | [F,,F,]8 |] %14

